universal/android/bell-ring.svg

<svg width="24" height="24" viewBox="0 0 24 24" fill="none" xmlns="http://www.w3.org/2000/svg">
<path fill-rule="evenodd" clip-rule="evenodd" d="M6.74796 8.42796C6.74796 5.40384 9.12536 3 12 3C14.8746 3 17.252 5.40384 17.252 8.42796V11.1369C17.252 12.8188 18.5469 14.1982 20.1942 14.3327V16.8808H3.80583V14.3327C5.45307 14.1982 6.74796 12.8188 6.74796 11.1369V8.42796Z" fill="black"/>
<path fill-rule="evenodd" clip-rule="evenodd" d="M9.62891 18.5803C10.9384 19.8898 13.0616 19.8898 14.3711 18.5803L15.7853 19.9945C13.6947 22.0851 10.3053 22.0851 8.21469 19.9945L9.62891 18.5803Z" fill="black"/>
<path d="M22 4C22 5.10457 21.1046 6 20 6C18.8954 6 18 5.10457 18 4C18 2.89543 18.8954 2 20 2C21.1046 2 22 2.89543 22 4Z" fill="black"/>
</svg>

<svg xmlns="http://www.w3.org/2000/svg" viewBox="0 0 24 24"><path fill-rule="evenodd" clip-rule="evenodd" d="M6.748 8.428C6.748 5.404 9.125 3 12 3s5.252 2.404 5.252 5.428v2.709a3.207 3.207 0 002.942 3.196v2.548H3.806v-2.548a3.207 3.207 0 002.942-3.196V8.428zM9.629 18.58a3.353 3.353 0 004.742 0l1.414 1.415a5.353 5.353 0 01-7.57 0l1.414-1.415z"/><path d="M22 4a2 2 0 11-4 0 2 2 0 014 0z"/></svg>
